X: 953
T: Güvercin Uçuverdi
C: (Anonim)
O: Turkey
F: http://compmusic.upf.edu/node/140
N: evic--turku--sofyan--guvercin_ucuverdi--
N: makam= evic
N: form= turku
N: usul= sofyan = 4/4
M: 4/4
L: 1/16
K: C _1/4B ^f ^c 
Q: 1/4=72
%%MIDI tuningsystem comma53
cd3 dAdA d3/2c/de c2BA  | d3/2c/de c2BA dAdA c2BA  | 
w:  ARANAĞME  |   | 
A2Bd c2BA A2Bd c2BA  | BA2A B2{A}G2 BA2A B2{A}G2  | 
w:   |   | 
BA2A BAGF F4 ^E/F/G/A/B/c/d/^e/  | \
w:   | 
fga2 a3/2g/a=b ag2f f2dd  | 
w:   | 
f2z2 fga2 a2a=b ag{a}gf  | f8-f2z2 f2ff  | \
w:  *  Gü ver *  cin  u *  çu *  *  ver  |  di   SAZ  | 
^e2f2 g3f f3e e3g  | 
w:  Ka na dın_ *  a *  çı  | 
f2^3/4e2 d2dc c8  | e2ed d2dc c8  | c/d/^e/f/g2 g2gf f2e2 f2{a}g2  | 
w:  *  *  ver *  *  di    |  Ben  yan *  dım_ a *  man    |  SAZ *  *  *  *  El_ oğ *  lu  de ğil  *  mi  | 
f2^2/4e2 d2cd =e2d2 e2z2  | c2dB B2A2 c3/2d/c{d}B A3/2B/AB  | 
w:  dir  *  *  a *  man  a man    |  Sev di  *  de  *  ka *  *  *  *  çı  | 
AG2F F8 FGAB  | c/d/^e/f/g2 g2gf f2e2 f2{a}g2  | \
w:  ver *  *  di    |  SAZ *  *  *  *  El_ oğ *  lu  de ğil  *  mi  | 
f2^2/4e2 d2cd =e2d2 e2z2  | 
w:  dir  *  *  a *  man  a man    | 
c2dB B2A2 c3/2d/c{d}B A3/2B/AB  | \
w:  Sev di  *  de  *  ka *  *  *  *  çı  | 
AG2F F4 F/G/A/B/c/d/^e/f/ g/a/b/c'/d'2  | 
w:  ver *  *  di   SAZ  | 
cdd2 d2d2 dcBd c2B{c}A  | A2Bd c2BA AGGF F2d2  | 
w:  A  *  be nim  ha cı  *  yâ *  rim    |  Ba şı *  mın  ta *  cı  *  yâ *  rim   SAZ  | 
cdd2 d2d2 dcBd c2B{c}A  | A2Bd c2BA AGGF F4  | 
w:  El *  ler  ba na  a *  cı *  maz    |  Sen  ba *  ri  a *  cı  *  yâ *  rim    | 
cd3 dAdA d3/2c/de c2BA  | d3/2c/de c2BA dAdA c2BA  | 
w:  ARANAĞME  |   | 
A2Bd c2BA A2Bd c2BA  | BA2A B2{A}G2 BA2A B2{A}G2  | 
w:   |   | 
BA2A BAGF F4 ^E/F/G/A/B/c/d/^e/  | \
w:   | 
fga2 a3/2g/a=b ag2f f2dd  | 
w:   | 
f2z2 fga2 a2a=b ag{a}gf  | f8-f2z2 f2ff  | \
w:  *  Gü ver *  cin  u *  çu *  *  ver  |  di   SAZ  | 
^e2f2 g3f f3e e3g  | 
w:  Ka na dın_ *  a *  çı  | 
f2^3/4e2 d2dc c8  | e2ed d2dc c8  | c/d/^e/f/g2 g2gf f2e2 f2{a}g2  | 
w:  *  *  ver *  *  di    |  Ben  yan *  dım_ a *  man    |  SAZ *  *  *  *  El_ oğ *  lu  de ğil  *  mi  | 
f2^2/4e2 d2cd =e2d2 e2z2  | c2dB B2A2 c3/2d/c{d}B A3/2B/AB  | 
w:  dir  *  *  a *  man  a man    |  Sev di  *  de  *  ka *  *  *  *  çı  | 
AG2F F8 FGAB  | c/d/^e/f/g2 g2gf f2e2 f2{a}g2  | \
w:  ver *  *  di    |  SAZ *  *  *  *  El_ oğ *  lu  de ğil  *  mi  | 
f2^2/4e2 d2cd =e2d2 e2z2  | 
w:  dir  *  *  a *  man  a man    | 
c2dB B2A2 c3/2d/c{d}B A3/2B/AB  | \
w:  Sev di  *  de  *  ka *  *  *  *  çı  | 
AG2F F4 F/G/A/B/c/d/^e/f/ g/a/b/c'/d'2  | 
w:  ver *  *  di   SAZ  | 
cdd2 d2d2 dcBd c2B{c}A  | A2Bd c2BA AGGF F2d2  | 
w:  A  *  be nim  ha cı  *  yâ *  rim    |  Ba şı *  mın  ta *  cı  *  yâ *  rim   SAZ  | 
cdd2 d2d2 dcBd c2B{c}A  | A2Bd c2BA AGGF F4  | 
w:  El *  ler  ba na  a *  cı *  maz    |  Sen  ba *  ri  a *  cı  *  yâ *  rim    | 
cddd dAdA d3/2c/de c2BA  | d3/2c/de c2BA dAdA c2BA  | 
w:  SAZ  |   | 
cded e2d2 z{g}=fe{f}d e2d2  | cded e2d2 z=f{g}e{f}d e2d2  | 
w:  OYUN KISMI  |   | 
cded e2d3/2a/ g{a}=f{g}e{f}d e2d2  | \
w:   | 
cded e2d3/2a/ g{a}=f{g}e{f}d e2d2  | 
w:   | 
dAdA c2BA dAdA c2BA  | dAdA c2BA dAdA c2BA  | 
w:   |   | 
A2Bd c2BA A2Bd c2BA  | BA2A B2G2 BA2A B2G2  | 
w:   |   | 
BA2A BAGF F8  | DEDE D2G2 F2EG F2FF  | \
w:   |   | 
DEDE D2G2 F2EG F4  | 
w:   | 
|


